X:475
T:Scotland The Brave #2 
C:Joe Buchanan's Scottish Tome - Page 107.1
I:107 1
R:Polka
Z:Carl Allison
L:1/8
M:4/4
K:Dmaj
"D"D4 D3 E | "D"F2 D2 F2 A2 | "D"d4 d3 "G"d | "D"d2 A2 "D7"F2  D2 |
"G"G4 B3 G | "D"F2 A2 F2 D2 | "E7"E4 A3 B | "A7"A2 G2 F2 E2 |
"D"D4 D3 E | "D"F2 D2 F2 A2 | "D"d4 "G"d3 c | "D"d2 A2 "D7"F2 D2 |
"G"G4 B3 G | "D"F2 A2 F2 D2 | "E7"E4 "A7"D3 D | "D"D8 |
"A7"e4 e3 e | "A7"e2 c2 A4 | "D"d4 "G"f2 e2 | "D"d2 B2 A4 |
"Bm"d4 d3 d | "F#m"c4 d2 c2 | "E7"B2 d2 c2 B2 | "A7"A2 G2 F2 E2 |
"D"D4 D3 E | "D"F2 D2 F2 A2 | "D"d4 "G"d3 d | "D"d2 A2 "D7"F2 D2 |
"G"G4 B3 G | "D"F2 A2 "Bm"F2 D2 |"Em" E4 D3 D | "D"D8 |

